public/avatar/body/183.svg

<svg xmlns:xlink="http://www.w3.org/1999/xlink" height="82" width="84.85" xmlns="http://www.w3.org/2000/svg"><g transform="translate(37.4 42.25)"><use height="38" transform="translate(-11.95 -17.45)" width="32.05" xlink:href="#a"/><use height="38.95" transform="translate(-12.45 -17.95)" width="33.05" xlink:href="#b"/><use height="27.95" transform="translate(-16.3 -3.65)" width="40.85" xlink:href="#c"/></g><defs><path d="M27.35 7.4q2.15 4.15 3.55 8.75 1.45 4.7 1.15 9.5-.35 4.95-4.2 8.1-3.8 3.2-8.75 4.05l-2.6.2q-3.6 0-7.05-1.15-4.65-1.6-7.1-5.5Q-.2 27.4.05 23q.2-4.4 2-9.3Q3.85 8.75 7 5.05 10.1 1.3 14.7.1l1.8-.1q1.9.05 3.7.8 4.75 2.05 7.15 6.6" fill="#ffe6bf" fill-rule="evenodd" transform="translate(-.05)" id="d"/><path d="M27.35 7.4Q24.95 2.85 20.2.8 17.55-.3 14.7.1 10.1 1.3 7 5.05q-3.15 3.7-4.95 8.65-1.8 4.9-2 9.3-.25 4.4 2.3 8.35 2.45 3.9 7.1 5.5 4.65 1.55 9.65.95 4.95-.85 8.75-4.05 3.85-3.15 4.2-8.1.3-4.8-1.15-9.5-1.4-4.6-3.55-8.75Z" fill="none" stroke="#170001" stroke-linecap="round" stroke-linejoin="round" transform="translate(.45 .5)" id="e"/><use height="38" width="32.05" xlink:href="#d" id="a"/><use height="38.95" width="33.05" xlink:href="#e" id="b"/><g id="c" fill-rule="evenodd"><path d="m21.05 5.85-.3-2.7-1.95.5-.05 3.1-.2 1.5 2.3-.45.2-1.95m.75-.45-.1 2.25 2.15-.95-.75-3.45-1.05-.45-.4.2.15 2.4m2.5 2.5-3.4 1-1.35 9.2-1.15.55 1 3-.2.4-.85.5L17 20.9l-.95 2.1q-4.95 1.25-10.1 1.25-5.95.3-11.8-.85l-2.7-.65-2.45-.7q-.3-1.7.8-3.2l-1.25-.3-1.35-9.65-2.75-1.15-.45-.4q-.55-2.1-.15-4.35l.1-.15 1-1.25q6.3 1.75 12.35 4.35.75.35 1.35.95 1 1.05 1.85 2.25l1.5 2.4 1.4 2.6 1.65-.25Q6.6 9.75 9.5 6.15L23.15 1.6q1.6 2.2 1.35 5l-.2 1.3m-8.6-2.95-.2 2.55-.25 1.2 2.45-.3.25-1.45V4l-2.25.35v.6m-.85.35-.1-.7-2.25.7-.05 1.1-.15 1.65-.2.95 2.25-.25.3-1.05.2-2.4m-1.7 6.25 2.9.2.05.5 1-1q.7-.7 1.6-.65l-1.5 6.55-.3.05-3 .7-1.45.3q-.45.2-.85 0l-1.8-1.1-.15-.9.1-4.6 3.4-.05M10.2 18.9l5.9-.65 1.85-.45 1.4-7.95-4.9.55-6.6.95-2 3.1 1 2.8-.2 1.1-.6.45-.55.2.7.05 4-.15m1.25-10.75.15-1.35V5.6L9 8l-.05.2-.1.2-.2.5 2.55.2.25-.95M5.6 14.8l-2.7.05.1 1.05.1.1.4.1 1.05-.3.85-.45.2-.55m-.35 2.25.1.95-1.15.15.45-1.15.6.05m0-.5q-.8.4-1.65.75l-.25.75.35.6q1.75.4 2.75-.9l-.2-.6-1-.6M.3 11.35l-6.7-1-4.8-.5 1.15 7.8 1.05.4 1.1.25 5.9.6 3.95.15 1.2-.05q-.35-2.1-1.05-4.05-.7-1.9-1.8-3.6m-5.25.15 3.75.5.35 2.2q.5 2.25-1.2 3.6l-.85.35q-1.2.6-2.45-.2l-2-2.1-.25-3.15.2-1.25 2.45.05m9.4 7.85-.35-.2-.35.2q-.15.15-.15.4l.15.45.35.15.35-.15.15-.45-.15-.4M-7.6 22.3l3.7.6q6.8.95 13.65.3l4.1-1q1.05-.25 1.8-1l1.25-1.65 1.55 2-.8-2.65-5.05.85-5.6.55-2.2.1-1.25.3-4.05-.55-5.65-.5-2.15-.4-.6-.15-.6-.1-.55 2.65.6.3 1.85.35m17.85-5.85.15.45q1.25 1.4 3.1.3l1.3-.95.5-.65.05-3.15-1.15 1.05-3.55-.85q-.55.1-.5.55l.1 3.25m-14.7-10.8-2.4-.95-.05.95.2 2 .2.95 2.45.4-.2-1.55-.2-1.8m-3.15 0-.1-1.15-2.2-.55-.1 1.65.15 2.05.1.5 2.45.5-.1-.95-.2-2.05M-5.55 14l.6.35 2.55-.95-.05-1.15-1.75-.1h-2.85l-.1.9 1.6.95m1.9-6.65.4 1.65h2.6L-2 6.95-3.65 5.6v1.75m-7-1.8-.1-1.85-2-.5-.25 2.3.1 1.9.15.4 2.2.45V7.6l-.1-2.05m-3-.1L-13.6 3l-1.1-.15-.85 2.15-.15 1.45.35.6 1.65.45v-.2l.05-1.85m7.95 11.3 1.05.95q1.05.35 1.9-.35l.5-.7.45-1.7-3.35.85-.8-.5-1.05-.85v1l1.3 1.3" fill="#1b181e" transform="translate(16.3 3.65)"/><path d="m21.05 5.85-.2 1.95-2.3.45.2-1.5 2.3-.9m.75-.45q.55 0 .95-.6.35-.65.35-1.55l.75 3.45-2.15.95.1-2.25m-6.3 2.1 2.45-.55-.25 1.45-2.45.3.25-1.2m-.85.2-.3 1.05L12.1 9l.2-.95 2.35-.35m-3.2.45-.25.95-2.55-.2.2-.5 2.6-.25m-17.6 11.5 5.65.5 4.05.55 1.25-.3 2.2-.1 5.6-.55 5.05-.85.8 2.65-1.55-2-1.25 1.65q-.75.75-1.8 1l-4.1 1q-6.85.65-13.65-.3l-3.7-.6.7.05.75-2.7m-3.9 2L-9.5 19l.6.1-1.15 2.55m5.8-14.2.2 1.55-2.45-.4-.2-.95 2.45-.2m-5.6.2 2.45.05.1.95-2.45-.5-.1-.5m6.2-.3 1.65-.4L-.65 9h-2.6l-.4-1.65m-9.25.05 2.35.2v.65l-2.2-.45-.15-.4m-.8-.1v.2l-1.65-.45 1.65.25" fill="#838383" transform="translate(16.3 3.65)"/><path d="m18.75 6.75.05-3.1 1.95-.5.3 2.7-2.3.9m4.35-3.5q0 .9-.35 1.55-.4.6-.95.6L21.65 3l.4-.2 1.05.45m-7.4 1.7L17.95 4v2.95l-2.45.55.2-2.55M12.45 6.4l2.4-1.1-.2 2.4-2.35.35.15-1.65m-.85.4-.15 1.35-2.6.25 2.75-1.6M-7.6 22.3l-1.85-.35 1.15-2.7 2.15.4-.75 2.7-.7-.05m.7-16.65h2.45l.2 1.8-2.45.2-.2-2M-10 5.6l2.4.05.2 2.05-2.45-.05L-10 5.6m8 1.35-1.65.4V5.6L-2 6.95M-13 5.5l2.35.05.1 2.05-2.35-.2-.1-1.9m-2.55-.5 1.9.45-.05 1.85-1.65-.25-.35-.6.15-1.45" fill="#b8b8b7" transform="translate(16.3 3.65)"/><path d="m17.95 4-2.25.95v-.6L17.95 4m-5.5 2.4.05-1.1 2.25-.7.1.7-2.4 1.1m-3.6 2 .1-.2L9 8l2.6-2.4v1.2L8.85 8.4m-18.3 13.55-.6-.3 1.15-2.55.6.15-1.15 2.7m2.55-16.3.05-.95 2.4.95H-6.9m-.7 0L-10 5.6l.1-1.65 2.2.55.1 1.15m-3.05-.1L-13 5.5l.25-2.3 2 .5.1 1.85m-4.9-.55.85-2.15 1.1.15-.05 2.45-1.9-.45" fill="#fff" transform="translate(16.3 3.65)"/><path d="m13.15 11.55 1.3-1.15 4.9-.55-1.4 7.95-1.85.45-5.9.65 1-.2-1.4-1.6 1.8 1.1q.4.2.85 0l1.45-.3 3-.7.3-.05 1.5-6.55q-.9-.05-1.6.65l-1 1-.05-.5-2.9-.2m-5.3-.2.05.5.2 2.1q-.1 1.9-1.25 3.3l-1-2.8 2-3.1m-1.8 7.45.15.25-.7-.05.55-.2m-.8-1.75.25.1.05.8-.2.05-.1-.95m-3.3 2Q2.3 18.5 1.9 18 .6 16.5 0 14.5l-.05-1.15.35-2q1.1 1.7 1.8 3.6.7 1.95 1.05 4.05l-1.2.05m-8.35-8.7 1.45 1.15-2.45-.05-.2 1.25-3-2.2 1.9 6.85 3.35.6q1.25.8 2.45.2l.85-.35-1 .9 1.05.2-5.9-.6-1.1-.25-1.05-.4-1.15-7.8 4.8.5m17.05 2.3 3.55.85 1.15-1.05-.05 3.15-.5.65-1.3.95q-1.85 1.1-3.1-.3l-.15-.45 2.15-3.1-1.75-.7m-14.85-.5 1.75.1.05 1.15-2.55.95-.6-.35 1.35-1.85m-1.75 3.15.8.5 3.35-.85-.45 1.7-.5.7q-.85.7-1.9.35l-1.05-.95-.25-1.45" fill="#454547" transform="translate(16.3 3.65)"/><path d="m5.6 14.8-.2.55-.85.45-1.05.3-.4-.1-.1-.1-.1-1.05 2.7-.05m5.05-2.15 1.75.7-2.15 3.1-.1-3.25q-.05-.45.5-.55M-5.55 14l-1.6-.95.1-.9h2.85L-5.55 14m-.15 2.75-1.3-1.3v-1l1.05.85.25 1.45m-1.9-4.05.25 3.15 2 2.1-3.35-.6-1.9-6.85 3 2.2" fill="#999" transform="translate(16.3 3.65)"/><path d="m14.45 10.4-1.3 1.15-3.4.05-.1 4.6.15.9 1.4 1.6-1 .2-4 .15-.15-.25.6-.45.2-1.1q1.15-1.4 1.25-3.3l-.2-2.1-.05-.5 6.6-.95M.3 11.35l-.35 2L0 14.5q.6 2 1.9 3.5.4.5.05 1.05L-2 18.9l-1.05-.2 1-.9q1.7-1.35 1.2-3.6L-1.2 12l-3.75-.5-1.45-1.15 6.7 1" fill="#38373a" transform="translate(16.3 3.65)"/><path d="m4.45 19.35.15.4-.15.45-.35.15-.35-.15-.15-.45q0-.25.15-.4l.35-.2.35.2" fill="#b3b8b8" transform="translate(16.3 3.65)"/><path d="m5.35 18 .2-.05-.05-.8-.25-.1-.6-.05-.45 1.15L5.35 18m-.1-1.45 1 .6.2.6q-1 1.3-2.75.9l-.35-.6.25-.75q.85-.35 1.65-.75" fill="#cfd2cf" transform="translate(16.3 3.65)"/><path d="m-5.95-1.85 2.5-.4L-4.65 0l1.2 2.25-2.5-.45-1.8 1.8-.35-2.5-2.3-1.15 2.3-1.1.4-2.5 1.75 1.8" fill="#ff6d00" transform="translate(16.3 3.65)"/><path d="m-7.45-2.7 1.3 1.35 1.85-.3L-5.2 0l.85 1.7-1.85-.35-1.3 1.35-.25-1.85-1.7-.85 1.7-.85.3-1.85" fill="gold" transform="translate(16.3 3.65)"/><path d="M-6.6-.35q.15.55-.7.55-.85.05-1.65-.4l1.3-.3q.35-.25.5-1.7l.55 1.85" fill="#ffb" transform="translate(16.3 3.65)"/></g></defs></svg>

<?xml version="1.0" encoding="UTF-8" standalone="no"?>
<svg xmlns:xlink="http://www.w3.org/1999/xlink" height="82.0px" width="84.85px" xmlns="http://www.w3.org/2000/svg">
  <g transform="matrix(1.0, 0.0, 0.0, 1.0, 37.4, 42.25)">
    <use height="38.0" transform="matrix(1.0, 0.0, 0.0, 1.0, -11.95, -17.45)" width="32.05" xlink:href="#sprite0"/>
    <use height="38.95" transform="matrix(1.0, 0.0, 0.0, 1.0, -12.45, -17.95)" width="33.05" xlink:href="#sprite1"/>
    <use height="27.95" transform="matrix(1.0, 0.0, 0.0, 1.0, -16.3, -3.65)" width="40.85" xlink:href="#shape2"/>
  </g>
  <defs>
    <g id="sprite0" transform="matrix(1.0, 0.0, 0.0, 1.0, -0.05, 0.0)">
      <use height="38.0" transform="matrix(1.0, 0.0, 0.0, 1.0, 0.05, 0.0)" width="32.05" xlink:href="#shape0"/>
    </g>
    <g id="shape0" transform="matrix(1.0, 0.0, 0.0, 1.0, -0.05, 0.0)">
      <path d="M27.35 7.4 Q29.5 11.55 30.9 16.15 32.35 20.85 32.05 25.65 31.7 30.6 27.85 33.75 24.05 36.95 19.1 37.8 L16.5 38.0 Q12.9 38.0 9.45 36.85 4.8 35.25 2.35 31.35 -0.2 27.4 0.05 23.0 0.25 18.6 2.05 13.7 3.85 8.75 7.0 5.05 10.1 1.3 14.7 0.1 L16.5 0.0 Q18.4 0.05 20.2 0.8 24.95 2.85 27.35 7.4" fill="#ffe6bf" fill-rule="evenodd" stroke="none"/>
    </g>
    <g id="sprite1" transform="matrix(1.0, 0.0, 0.0, 1.0, 0.45, 0.5)">
      <use height="38.95" transform="matrix(1.0, 0.0, 0.0, 1.0, -0.45, -0.5)" width="33.05" xlink:href="#shape1"/>
    </g>
    <g id="shape1" transform="matrix(1.0, 0.0, 0.0, 1.0, 0.45, 0.5)">
      <path d="M27.35 7.4 Q24.95 2.85 20.2 0.8 17.55 -0.3 14.7 0.1 10.1 1.3 7.0 5.05 3.85 8.75 2.05 13.7 0.25 18.6 0.05 23.0 -0.2 27.4 2.35 31.35 4.8 35.25 9.45 36.85 14.1 38.4 19.1 37.8 24.05 36.95 27.85 33.75 31.7 30.6 32.05 25.65 32.35 20.85 30.9 16.15 29.5 11.55 27.35 7.4 Z" fill="none" stroke="#170001" stroke-linecap="round" stroke-linejoin="round" stroke-width="1.0"/>
    </g>
    <g id="shape2" transform="matrix(1.0, 0.0, 0.0, 1.0, 16.3, 3.65)">
      <path d="M21.05 5.85 L20.75 3.15 18.8 3.65 18.75 6.75 18.55 8.25 20.85 7.8 21.05 5.85 M21.8 5.4 L21.7 7.65 23.85 6.7 23.1 3.25 22.05 2.8 21.65 3.0 21.8 5.4 M24.3 7.9 L20.9 8.9 19.55 18.1 18.4 18.65 19.4 21.65 19.2 22.05 18.35 22.55 17.0 20.9 16.05 23.0 Q11.1 24.25 5.95 24.25 0.0 24.55 -5.85 23.4 L-8.55 22.75 -11.0 22.05 Q-11.3 20.35 -10.2 18.85 L-11.45 18.55 -12.8 8.9 -15.55 7.75 -16.0 7.35 Q-16.55 5.25 -16.15 3.0 L-16.05 2.85 -15.05 1.6 Q-8.75 3.35 -2.7 5.95 -1.95 6.3 -1.35 6.9 -0.35 7.95 0.5 9.15 L2.0 11.55 3.4 14.15 5.05 13.9 Q6.6 9.75 9.5 6.15 L23.15 1.6 Q24.75 3.8 24.5 6.6 L24.3 7.9 M15.7 4.95 L15.5 7.5 15.25 8.7 17.7 8.4 17.95 6.95 17.95 4.0 15.7 4.35 15.7 4.95 M14.85 5.3 L14.75 4.6 12.5 5.3 12.45 6.4 12.3 8.05 12.1 9.0 14.35 8.75 14.65 7.7 14.85 5.3 M13.15 11.55 L16.05 11.75 16.1 12.25 17.1 11.25 Q17.8 10.55 18.7 10.6 L17.2 17.15 16.9 17.2 13.9 17.9 12.45 18.2 Q12.0 18.4 11.6 18.2 L9.8 17.1 9.65 16.2 9.75 11.6 13.15 11.55 M10.2 18.9 L16.1 18.25 17.95 17.8 19.35 9.85 14.45 10.4 7.85 11.35 5.85 14.45 6.85 17.25 6.65 18.35 6.05 18.8 5.5 19.0 6.2 19.05 10.2 18.9 M11.45 8.15 L11.6 6.8 11.6 5.6 9.0 8.0 8.95 8.2 8.85 8.4 8.65 8.9 11.2 9.1 11.45 8.15 M5.6 14.8 L2.9 14.85 3.0 15.9 3.1 16.0 3.5 16.1 4.55 15.8 5.4 15.35 5.6 14.8 M5.25 17.05 L5.35 18.0 4.2 18.15 4.65 17.0 5.25 17.05 M5.25 16.55 Q4.45 16.95 3.6 17.3 L3.35 18.05 3.7 18.65 Q5.45 19.05 6.45 17.75 L6.25 17.15 5.25 16.55 M0.3 11.35 L-6.4 10.35 -11.2 9.85 -10.05 17.65 -9.0 18.05 -7.9 18.3 -2.0 18.9 1.95 19.05 3.15 19.0 Q2.8 16.9 2.1 14.95 1.4 13.05 0.3 11.35 M-4.95 11.5 L-1.2 12.0 -0.85 14.2 Q-0.35 16.45 -2.05 17.8 L-2.9 18.15 Q-4.1 18.75 -5.35 17.95 L-7.35 15.85 -7.6 12.7 -7.4 11.45 -4.95 11.5 M4.45 19.35 L4.1 19.15 3.75 19.35 Q3.6 19.5 3.6 19.75 L3.75 20.2 4.1 20.35 4.45 20.2 4.6 19.75 4.45 19.35 M-7.6 22.3 L-3.9 22.9 Q2.9 23.85 9.75 23.2 L13.85 22.2 Q14.9 21.95 15.65 21.2 L16.9 19.55 18.45 21.55 17.65 18.9 12.6 19.75 7.0 20.3 4.8 20.4 3.55 20.7 -0.5 20.15 -6.15 19.65 -8.3 19.25 -8.9 19.1 -9.5 19.0 -10.05 21.65 -9.45 21.95 -7.6 22.3 M10.25 16.45 L10.4 16.9 Q11.65 18.3 13.5 17.2 L14.8 16.25 15.3 15.6 15.35 12.45 14.2 13.5 10.65 12.65 Q10.1 12.75 10.15 13.2 L10.25 16.45 M-4.45 5.65 L-6.85 4.7 -6.9 5.65 -6.7 7.65 -6.5 8.6 -4.05 9.0 -4.25 7.45 -4.45 5.65 M-7.6 5.65 L-7.7 4.5 -9.9 3.95 -10.0 5.6 -9.85 7.65 -9.75 8.15 -7.3 8.65 -7.4 7.7 -7.6 5.65 M-5.55 14.0 L-4.95 14.35 -2.4 13.4 -2.45 12.25 -4.2 12.15 -7.05 12.15 -7.15 13.05 -5.55 14.0 M-3.65 7.35 L-3.25 9.0 -0.65 9.0 -2.0 6.95 -3.65 5.6 -3.65 7.35 M-10.65 5.55 L-10.75 3.7 -12.75 3.2 -13.0 5.5 -12.9 7.4 -12.75 7.8 -10.55 8.25 -10.55 7.6 -10.65 5.55 M-13.65 5.45 L-13.6 3.0 -14.7 2.85 -15.55 5.0 -15.7 6.45 -15.35 7.05 -13.7 7.5 -13.7 7.3 -13.65 5.45 M-5.7 16.75 L-4.65 17.7 Q-3.6 18.05 -2.75 17.35 L-2.25 16.65 -1.8 14.95 -5.15 15.8 -5.95 15.3 -7.0 14.45 -7.0 15.45 -5.7 16.75" fill="#1b181e" fill-rule="evenodd" stroke="none"/>
      <path d="M21.05 5.85 L20.85 7.8 18.55 8.25 18.75 6.75 21.05 5.85 M21.8 5.4 Q22.35 5.4 22.75 4.8 23.1 4.15 23.1 3.25 L23.85 6.7 21.7 7.65 21.8 5.4 M15.5 7.5 L17.95 6.95 17.7 8.4 15.25 8.7 15.5 7.5 M14.65 7.7 L14.35 8.75 12.1 9.0 12.3 8.05 14.65 7.7 M11.45 8.15 L11.2 9.1 8.65 8.9 8.85 8.4 11.45 8.15 M-6.15 19.65 L-0.5 20.15 3.55 20.7 4.8 20.4 7.0 20.3 12.6 19.75 17.65 18.9 18.45 21.55 16.9 19.55 15.65 21.2 Q14.9 21.95 13.85 22.2 L9.75 23.2 Q2.9 23.85 -3.9 22.9 L-7.6 22.3 -6.9 22.35 -6.15 19.65 M-10.05 21.65 L-9.5 19.0 -8.9 19.1 -10.05 21.65 M-4.25 7.45 L-4.05 9.0 -6.5 8.6 -6.7 7.65 -4.25 7.45 M-9.85 7.65 L-7.4 7.7 -7.3 8.65 -9.75 8.15 -9.85 7.65 M-3.65 7.35 L-2.0 6.95 -0.65 9.0 -3.25 9.0 -3.65 7.35 M-12.9 7.4 L-10.55 7.6 -10.55 8.25 -12.75 7.8 -12.9 7.4 M-13.7 7.3 L-13.7 7.5 -15.35 7.05 -13.7 7.3" fill="#838383" fill-rule="evenodd" stroke="none"/>
      <path d="M18.75 6.75 L18.8 3.65 20.75 3.15 21.05 5.85 18.75 6.75 M23.1 3.25 Q23.1 4.15 22.75 4.8 22.35 5.4 21.8 5.4 L21.65 3.0 22.05 2.8 23.1 3.25 M15.7 4.95 L17.95 4.0 17.95 6.95 15.5 7.5 15.7 4.95 M12.45 6.4 L14.85 5.3 14.65 7.7 12.3 8.05 12.45 6.4 M11.6 6.8 L11.45 8.15 8.85 8.4 11.6 6.8 M-7.6 22.3 L-9.45 21.95 -8.3 19.25 -6.15 19.65 -6.9 22.35 -7.6 22.3 M-6.9 5.65 L-4.45 5.65 -4.25 7.45 -6.7 7.65 -6.9 5.65 M-10.0 5.6 L-7.6 5.65 -7.4 7.7 -9.85 7.65 -10.0 5.6 M-2.0 6.95 L-3.65 7.35 -3.65 5.6 -2.0 6.95 M-13.0 5.5 L-10.65 5.55 -10.55 7.6 -12.9 7.4 -13.0 5.5 M-15.55 5.0 L-13.65 5.45 -13.7 7.3 -15.35 7.05 -15.7 6.45 -15.55 5.0" fill="#b8b8b7" fill-rule="evenodd" stroke="none"/>
      <path d="M17.95 4.0 L15.7 4.95 15.7 4.35 17.95 4.0 M12.45 6.4 L12.5 5.3 14.75 4.6 14.85 5.3 12.45 6.4 M8.85 8.4 L8.95 8.2 9.0 8.0 11.6 5.6 11.6 6.8 8.85 8.4 M-9.45 21.95 L-10.05 21.65 -8.9 19.1 -8.3 19.25 -9.45 21.95 M-6.9 5.65 L-6.85 4.7 -4.45 5.65 -6.9 5.65 M-7.6 5.65 L-10.0 5.6 -9.9 3.95 -7.7 4.5 -7.6 5.65 M-10.65 5.55 L-13.0 5.5 -12.75 3.2 -10.75 3.7 -10.65 5.55 M-15.55 5.0 L-14.7 2.85 -13.6 3.0 -13.65 5.45 -15.55 5.0" fill="#ffffff" fill-rule="evenodd" stroke="none"/>
      <path d="M13.15 11.55 L14.45 10.4 19.35 9.85 17.95 17.8 16.1 18.25 10.2 18.9 11.2 18.7 9.8 17.1 11.6 18.2 Q12.0 18.4 12.45 18.2 L13.9 17.9 16.9 17.2 17.2 17.15 18.7 10.6 Q17.8 10.55 17.1 11.25 L16.1 12.25 16.05 11.75 13.15 11.55 M7.85 11.35 L7.9 11.85 8.1 13.95 Q8.0 15.85 6.85 17.25 L5.85 14.45 7.85 11.35 M6.05 18.8 L6.2 19.05 5.5 19.0 6.05 18.8 M5.25 17.05 L5.5 17.15 5.55 17.95 5.35 18.0 5.25 17.05 M1.95 19.05 Q2.3 18.5 1.9 18.0 0.6 16.5 0.0 14.5 L-0.05 13.35 0.3 11.35 Q1.4 13.05 2.1 14.95 2.8 16.9 3.15 19.0 L1.95 19.05 M-6.4 10.35 L-4.95 11.5 -7.4 11.45 -7.6 12.7 -10.6 10.5 -8.7 17.35 -5.35 17.95 Q-4.1 18.75 -2.9 18.15 L-2.05 17.8 -3.05 18.7 -2.0 18.9 -7.9 18.3 -9.0 18.05 -10.05 17.65 -11.2 9.85 -6.4 10.35 M10.65 12.65 L14.2 13.5 15.35 12.45 15.3 15.6 14.8 16.25 13.5 17.2 Q11.65 18.3 10.4 16.9 L10.25 16.45 12.4 13.35 10.65 12.65 M-4.2 12.15 L-2.45 12.25 -2.4 13.4 -4.95 14.35 -5.55 14.0 -4.2 12.15 M-5.95 15.3 L-5.15 15.8 -1.8 14.95 -2.25 16.65 -2.75 17.35 Q-3.6 18.05 -4.65 17.7 L-5.7 16.75 -5.95 15.3" fill="#454547" fill-rule="evenodd" stroke="none"/>
      <path d="M5.6 14.8 L5.4 15.35 4.55 15.8 3.5 16.1 3.1 16.0 3.0 15.9 2.9 14.85 5.6 14.8 M10.65 12.65 L12.4 13.35 10.25 16.45 10.15 13.2 Q10.1 12.75 10.65 12.65 M-5.55 14.0 L-7.15 13.05 -7.05 12.15 -4.2 12.15 -5.55 14.0 M-5.7 16.75 L-7.0 15.45 -7.0 14.45 -5.95 15.3 -5.7 16.75 M-7.6 12.7 L-7.35 15.85 -5.35 17.95 -8.7 17.35 -10.6 10.5 -7.6 12.7" fill="#999999" fill-rule="evenodd" stroke="none"/>
      <path d="M14.45 10.4 L13.15 11.55 9.75 11.6 9.65 16.2 9.8 17.1 11.2 18.7 10.2 18.9 6.2 19.05 6.05 18.8 6.65 18.35 6.85 17.25 Q8.0 15.85 8.1 13.95 L7.9 11.85 7.85 11.35 14.45 10.4 M0.3 11.35 L-0.05 13.35 0.0 14.5 Q0.6 16.5 1.9 18.0 2.3 18.5 1.95 19.05 L-2.0 18.9 -3.05 18.7 -2.05 17.8 Q-0.35 16.45 -0.85 14.2 L-1.2 12.0 -4.95 11.5 -6.4 10.35 0.3 11.35" fill="#38373a" fill-rule="evenodd" stroke="none"/>
      <path d="M4.45 19.35 L4.6 19.75 4.45 20.2 4.1 20.35 3.75 20.2 3.6 19.75 Q3.6 19.5 3.75 19.35 L4.1 19.15 4.45 19.35" fill="#b3b8b8" fill-rule="evenodd" stroke="none"/>
      <path d="M5.35 18.0 L5.55 17.95 5.5 17.15 5.25 17.05 4.65 17.0 4.2 18.15 5.35 18.0 M5.25 16.55 L6.25 17.15 6.45 17.75 Q5.45 19.05 3.7 18.65 L3.35 18.05 3.6 17.3 Q4.45 16.95 5.25 16.55" fill="#cfd2cf" fill-rule="evenodd" stroke="none"/>
      <path d="M-5.95 -1.85 L-3.45 -2.25 -4.65 0.0 -3.45 2.25 -5.95 1.8 -7.75 3.6 -8.1 1.1 -10.4 -0.05 -8.1 -1.15 -7.7 -3.65 -5.95 -1.85" fill="#ff6d00" fill-rule="evenodd" stroke="none"/>
      <path d="M-7.45 -2.7 L-6.15 -1.35 -4.3 -1.65 -5.2 0.0 -4.35 1.7 -6.2 1.35 -7.5 2.7 -7.75 0.85 -9.45 0.0 -7.75 -0.85 -7.45 -2.7" fill="#ffd700" fill-rule="evenodd" stroke="none"/>
      <path d="M-6.6 -0.35 Q-6.45 0.2 -7.3 0.2 -8.15 0.25 -8.95 -0.2 L-7.65 -0.5 Q-7.3 -0.75 -7.15 -2.2 L-6.6 -0.35" fill="#ffffbb" fill-rule="evenodd" stroke="none"/>
    </g>
  </defs>
</svg>
